svgs/light/computer-classic.svg

<svg xmlns="http://www.w3.org/2000/svg" viewBox="0 0 448 512"><!--! Font Awesome Pro 6.6.0 by @fontawesome - https://fontawesome.com License - https://fontawesome.com/license (Commercial License) Copyright 2024 Fonticons, Inc. --><path d="M384 32c17.7 0 32 14.3 32 32l0 304c0 17.7-14.3 32-32 32L64 400c-17.7 0-32-14.3-32-32L32 64c0-17.7 14.3-32 32-32l320 0zM64 0C28.7 0 0 28.7 0 64L0 368c0 23.7 12.9 44.4 32 55.4L32 480c0 17.7 14.3 32 32 32l320 0c17.7 0 32-14.3 32-32l0-56.6c19.1-11.1 32-31.7 32-55.4l0-304c0-35.3-28.7-64-64-64L64 0zm0 432l320 0 0 48L64 480l0-48zM352 96l0 128L96 224 96 96l256 0zM96 64C78.3 64 64 78.3 64 96l0 128c0 17.7 14.3 32 32 32l256 0c17.7 0 32-14.3 32-32l0-128c0-17.7-14.3-32-32-32L96 64zM224 336c0 8.8 7.2 16 16 16l128 0c8.8 0 16-7.2 16-16s-7.2-16-16-16l-128 0c-8.8 0-16 7.2-16 16zM96 360a24 24 0 1 0 0-48 24 24 0 1 0 0 48z"/></svg>

<svg xmlns="http://www.w3.org/2000/svg" viewBox="0 0 448 512"><!--! Font Awesome Pro 6.4.0 by @fontawesome - https://fontawesome.com License - https://fontawesome.com/license (Commercial License) Copyright 2023 Fonticons, Inc. --><path d="M384 32c17.7 0 32 14.3 32 32V368c0 17.7-14.3 32-32 32H64c-17.7 0-32-14.3-32-32V64c0-17.7 14.3-32 32-32H384zM64 0C28.7 0 0 28.7 0 64V368c0 23.7 12.9 44.4 32 55.4V480c0 17.7 14.3 32 32 32H384c17.7 0 32-14.3 32-32V423.4c19.1-11.1 32-31.7 32-55.4V64c0-35.3-28.7-64-64-64H64zm0 432H384v48H64l0-48zM352 96V224H96V96H352zM96 64C78.3 64 64 78.3 64 96V224c0 17.7 14.3 32 32 32H352c17.7 0 32-14.3 32-32V96c0-17.7-14.3-32-32-32H96zM224 336c0 8.8 7.2 16 16 16H368c8.8 0 16-7.2 16-16s-7.2-16-16-16H240c-8.8 0-16 7.2-16 16zM96 360a24 24 0 1 0 0-48 24 24 0 1 0 0 48z"/></svg>
